X:1
T:Bartbam, 85.83
T:Livesey Carrott (1864-1900)
T:Bartbam, 85.83
T:Public Domain
C:Livesey Carrott (1864-1900)
Z:Public Domain
%%score ( 1 2 ) ( 3 4 )
L:1/8
M:4/4
K:G
V:1 treble 
V:2 treble 
V:3 bass 
V:4 bass 
V:1
 [GB]3 [Gd] [Gc]2 [GB]2 | [EA]3 E [DG]2 [DF]2 | [DG]2 [DA]2 [DB]2 [Dd]2 | [DA]8 | %4
 [DB]3 [Gd] [Gc]2 [GB]2 | [EA]2 [EG]2 [DF]2 [CE]2 | [B,D]4 (E2 F2) | [B,G]8 |] %8
V:2
 x8 | x3 E x4 | x8 | x8 | x8 | x8 | x4 C4 | x8 |] %8
V:3
 [G,D]3 [G,B,] [G,E]2 [G,D]2 | [C,C]3 [C,C] [D,B,]2 (D,C,) | [B,,G,]2 [A,,F,]2 [G,,G,]2 [B,,G,]2 | %3
 [D,F,]8 | G,3 [G,B,] [G,E]2 [G,D]2 | [C,C]2 [C,C]2 [C,G,]2 [C,G,]2 | (G,2 B,2) [D,A,]4 | %7
 [G,,G,]8 |] %8
V:4
 x8 | x6 A,2 | x8 | x8 | x8 | x8 | D,4 x4 | x8 |] %8

